X:1
T:Étude Op. 25 No. 8 in D♭ major
T:Étude Op. 25 No. 8 in D♭ major
T:"Sixth"
T:Frédéric Chopin
C:Frédéric Chopin
%%score { ( 1 3 ) | ( 2 4 ) }
L:1/8
Q:1/2=69
M:4/4
K:Db
V:1 treble nm="鋼琴" snm="Pno."
V:3 treble 
V:2 bass 
V:4 bass 
V:1
"^Vivace legato" (3([Ge][Af][Ge] (3[Af][Ge][Af] (3[Fd][Ge][=G=e] (3[B_g][Af][Fd]) | %1
 (3([Gf][Ge][Af] (3[Ge][Af][Ge] (3[Fd][Ge][=G=e] (3[B_g][Af][Fd]) | %2
 (3([=G_e][Af][=A^f] (3[B=g][c_a][db] (3[=d=b][ec'][=e^c'] (3[_g_e'][=fd'][ca]) | %3
 (3([_ec'][db][ec'] (3[db][ec'][db] (3[ca][db][B_g] (3[ca][Af][Bg]) | %4
 (3([Ge][Af][Ge] (3[Af][Ge][Af] (3[Fd][Ge][=G=e] (3[B_g][Af][Fd]) | %5
 (3([Gf][Ge][Af] (3[Ge][Af][Ge] (3[Fd][Ge][=G=e] (3[B_g][Af][Fd]) | %6
 (3([Ge][=G=e][Af] (3[=A^f][B=g][=B^g]!<(! (3[c=a][db][=d=b] (3[_ec'][=e^c'][=f=d'])!<)! | %7
!f! (3([_g_e'][d'b'][=b=g'] (3[c'a'][=af'][_b_g']!>(! (3[=g=e'][_af'][f=d'] (3[_g_e'][=ec'][f_d'])!>)! | %8
!mf! (3([db][ge'][=ec'] (3[fd'][db][fd'] (3[_ec'][fd'][ec'] (3[db][c=a][ec']) | %9
 (3([db][ec'][db] (3[c_a][Bg][db] (3[_ca][db][B=g] (3[ca][Af][ca]) | %10
 (3[B_g][=ca][Bg] (3[Af][Ge][Bg] (3[Af][Bg][Af] (3[Ge][Fd][Af] | %11
 (3([=Ge][Af][Ge] (3[Fd][DB][Ec] (3[CA][DB][CA] (3[DB][CA][Ec]) | %12
!<(! (3([DB][Ec][DB] (3[Ec][DB][Ec]!<)!!f! (3[CA][DB][=D=B]!>(! (3[F_d][Ec][CA])!>)! | %13
!mf!!<(! (3[Ec][_D_B][Ec] (3[DB][Ec][DB] (3[CA][DB]!<)!!f![=D=B]!>(! (3[F_d][Ec][CA]!>)! | %14
!mf!!<(! (3([_Ge][A_f][Ge] (3[Af][Ge][Af] (3[_Fd][=F=d][Ge]!<)!!f!!>(! (3[__Bg][Af][_F_d])!>)! | %15
!mf!!<(! (3([A_f][Ge][Af] (3[Ge][Af][Ge] (3[_Fd][=F=d][_Ge]!<)!!f!!>(! (3[__B_g][Af][_F_d])!>)! | %16
!mf!"_cresc." (3([A_f][=Ge][B=g] (3[A=f][ca][Bg] (3[db][ca][ec'] (3[db][fd'][ec'] | %17
!8va(! (3[=ge'][fd'][af'] (3[ge'][b=g'][af'] (3[c'a'][bg'][d'b'] (3[c'a'][e'c''][d'b']) | %18
 (3([c'a']!f![d'b'][b_g'] (3[c'a'][af'][bg'] (3[ge'][af'][fd'] (3[ge'][ec']"_dimin."[fd']!8va)! | %19
 (3[db][ec'][ca] (3[db][Bg][ca] (3[Af][Bg][Ge] (3[Af][Fd][Af]) | %20
!mf! (3(!>![Ge][Af][Ge] (3[Af][Ge][Af] (3[Fd][Ge][=G=e] (3[B_g][Af][Fd]) | %21
 (3([Gf][Ge][Af] (3[Ge][Af][Ge] (3[Fd][Ge][=G=e] (3[B_g][Af][Fd]) | %22
 (3([Af][Bg][Af] (3[Bg][Af][Bg] (3[Ge][Af][Bg] (3[_ca][db][ca]) | %23
"_cresc." (3([Bg][_ca][db] (3[e=c'][fd'][ec'] (3[db][ec'][fd'] (3[=ge'][af'][ge']) | %24
 (3([af'][=ge'][af'] (3[ge'][af'][ge'] (3[af'][ge'][af'] (3[ge'][af']!f![ge'] | %25
!>(! (3[af'][_ge'][af'] (3[ge'][af'][ge'] (3[af'][ge'][af'] (3[ge'][af'][ge']-!>)! | %26
!mf!"_decresc." (3[ge'][bg'][af'] (3[ge'][fd'][db] (3[ca][ec'][db] (3[ca][Bg][Ge] | %27
 (3[Fd]) z ([fd'] (3[ge'][fd'][db] (3[e_c'][fd'][ec'] (3[fd'][ec'][fd'] | %28
 (3[e_c'][fd'][ec'] (3[fd'][ec'][_ca] (3[db][Bg][db] (3[=ca][Ge][Af] | %29
 (3[Fd][Ge][Fd] (3[Ge][Fd][DB] (3[E_c][Fd][Ec] (3[Fd][Ec][Fd] | %30
 (3[E_c][Fd][Ec] (3[Fd][Ec][_CA] (3[DB][B,G][DB] (3[=CA][G,E][A,F]) | %31
 (3(D=DE (3=E=F^F (3=G"_cresc."[C_A][^C=A] (3[D_B][^D=B][=E=c] | %32
 (3[F_d][^F=d][=Ge] (3[^G=e][=A=f][^A^f] (3[=B=g][c_a][^c=a] (3[d_b][^d=b][=e=c'] | %33
!8va(! (3[f_d'][^f=d'][=ge'] (3[^g=e'][=a=f'][^a^f'] (3[=b=g'][c'_a'][^c'=a'] (3[d'_b'][^d'=b'][e'=c''] | %34
!f!"_cresc." [=f'_d''])!8va)! z!ff! ([Aea]2 [FAdf]2 [B,DGB]2 |[Q:1/4=60] !fermata![DAd]8) |] %36
V:2
!ped! (3(.A,,,[C,A,][E,C] (3[G,E][E,C][C,A,])!ped-up!!ped! (3(.D,,[D,A,][F,D] (3[D,A,][F,D][D,A,])!ped-up! | %1
!ped! (3.A,,([C,A,][E,C] (3[G,E][E,C][C,A,])!ped-up!!ped! (3(.D,,[D,A,][F,D] (3[D,A,][F,D][D,A,])!ped-up! | %2
!ped! (3.E,,([E,D][B,E] (3[D=G][B,E][E,D])!ped-up!!ped! (3.A,,([A,E][CA])!ped-up!!ped! (3.D,([F,D][A,F])!ped-up! | %3
!ped! (3.E,([=G,E][B,=G] (3[EB][B,G][G,E])!ped-up![I:staff -1] (3([CA][A,F][B,_G][I:staff +1] (3_G,A,F,) | %4
!ped! (3.A,,([C,A,][E,C] (3[G,E][E,C][C,A,])!ped-up!!ped! (3(.D,,[D,A,][F,D] (3[D,A,][F,D][D,A,])!ped-up! | %5
!ped! (3.A,,([C,A,][E,C] (3[G,E][E,C][C,A,])!ped-up!!ped! (3(.D,,[D,A,][F,D] (3[D,A,][F,D][D,A,])!ped-up! | %6
!ped! (3.G,,([G,D][B,E] (3[DG][B,E][G,D])!ped-up!!ped! (3(.G,,[G,E][DG][K:treble] (3[EB][DG][G,E])!ped-up! | %7
[K:bass]!ped! (3.A,,[K:treble]([A,G][EA] (3[Gc][EA][A,G])!ped-up![K:bass]!ped! (3.D,[K:treble]([A,F][_DA] (3[Fd][DA][A,F])!ped-up! | %8
[K:bass]!ped! (3.B,,[K:treble]([F,D][B,F] (3[DB][B,F][F,D])!ped-up![K:bass]!ped! (3.F,,([F,C][=A,F] (3[C=A][A,F][F,E])!ped-up! | %9
!ped! (3.G,,([D,B,][G,D] (3[B,G][G,D][D,B,])!ped-up!!ped! (3(.=D,,[=D,A,][F,_C] (3[A,=D][F,C][D,A,])!ped-up! | %10
!ped! (3.E,,([E,B,][G,E])!ped-up!!ped! (3.A,,([C,A,][E,C])!ped-up!!ped! (3.D,,([D,A,][F,D])!ped-up!!ped! (3.B,,,([B,,F,][D,B,])!ped-up! | %11
!ped! (3.E,,([=G,,E,][B,,=G,] (3[E,B,][B,,G,][G,,E,])!ped-up!!ped! (3.A,,, z!ped-up! ([A,,A,] (3[C,E,][A,,A,][C,E,] | %12
 (3[A,,=G,][D,E,][A,,G,] (3[D,E,][A,,G,][D,E,] (3[A,,A,][C,E,][A,,A,] (3[C,E,][A,,A,][C,E,]) | %13
 (3([A,,=G,][D,E,][A,,G,] (3[D,E,][A,,G,][D,E,] (3[A,,A,][C,E,][A,,A,] (3[C,E,][A,,A,][C,E,]) | %14
 (3([A,,A,][E,_G,][A,,A,] (3[E,G,][A,,A,][E,G,] (3[A,,A,][D,_F,][A,,A,] (3[D,F,][A,,A,][D,F,] | %15
 (3[A,,A,][E,G,][A,,A,] (3[E,G,][A,,A,][E,G,] (3[A,,A,][D,_F,][A,,A,] (3[D,F,][A,,A,][D,F,]) | %16
 (3([A,,=G,][D,E,][A,,G,] (3[D,E,][A,,G,][D,E,] (3[A,,G,][D,E,][A,,G,] (3[D,E,][A,,G,][D,E,] | %17
 (3[A,,=G,][D,E,][A,,G,] (3[D,E,][A,,G,][D,E,] (3[A,,G,][D,E,][A,,G,] (3[D,E,][A,,G,][D,E,] | %18
!ped! (3[A,,A,]) z[K:treble] ([_Ge] (3[Af][Fd][Gd]!ped-up! (3[Ec][Fd][DB] (3[Ec][CA][DB] | %19
[K:bass][I:staff -1] (3[B,G][CA][I:staff +1]A, (3B,G,A, (3[F,D][G,E][E,C] (3[F,D][D,B,][F,D]) | %20
!ped! (3.A,,([C,A,][E,C] (3[G,E][E,C][C,A,])!ped-up!!ped! (3(.D,,[D,A,][F,D] (3[D,A,][F,D][D,A,])!ped-up! | %21
!ped! (3.A,,([C,A,][E,C] (3[G,E][E,C][C,A,])!ped-up!!ped! (3(.D,,[D,A,][F,D] (3[D,A,][F,D][D,A,])!ped-up! | %22
!ped! (3.B,,([F,B,][A,=D] (3[B,F][A,D][F,B,])!ped-up!!ped! (3.E,(B,[G,E])!ped-up!!ped! (3._D,(_D[A,F])!ped-up! | %23
!ped! (3.G,(D[B,G])!ped-up!!ped! (3.F,[K:treble](F[C=A])!ped-up!!ped! (3.B,(F[DB])!ped-up!!ped! (3.__B,(E[D=G])!ped-up! | %24
!ped! [Ed]2 z2 z2[K:bass] ([__B,,,__B,,]2!ped-up! | %25
!ped! [A,,,A,,]2)[K:treble] (3([GB][CA][GB] (3[CA][GB][CA] (3[GB][CA][Ec] | %26
 [Ge])!ped-up! z[K:bass]!ped! (3(A,,[C,A,][E,C] [G,E]) z z2!ped-up! | %27
!ped! (3.D,,[K:treble] ([A,F][DA] (3[Fd][DA][A,F])!ped-up![K:bass]!ped! (3.D,[K:treble]([A,F][DA] (3[F_c][DA][A,F])!ped-up! | %28
[K:bass]!ped! (3.D,,([F,D][A,F] (3[DA][A,F][F,D])!ped-up!!ped! (3.G,,([G,D][B,G])!ped-up!!ped! (3.A,,([=C,A,][E,C])!ped-up! | %29
!ped! (3.D,,([A,,F,][D,A,] (3[F,D][D,A,][A,,F,])!ped-up!!ped! (3.D,,([A,,F,][D,A,] (3[F,_C][D,A,][A,,F,])!ped-up! | %30
!ped! (3.D,,([F,,D,][A,,F,] (3[D,A,][A,,F,][F,,D,])!ped-up!!ped! (3.G,,,(D,[B,,G,])!ped-up!!ped! (3.A,,,(A,,[E,,=C,])!ped-up! | %31
 [D,,D,] z z2 (3([A,,_A,][E,_G,][A,,A,] (3[E,G,][A,,A,][E,G,] | %32
 (3[A,,A,][E,G,][A,,A,] (3[E,G,][A,,A,][E,G,] (3[A,,A,][E,G,][A,,A,] (3[E,G,][A,,A,][E,G,] | %33
 (3[A,,A,][E,G,][A,,A,] (3[E,G,][A,,A,][E,G,] (3[A,,A,][E,G,][A,,A,] (3[E,G,][A,,A,][E,G,] | %34
!ped! .[D,F,]) z ([A,C]2!ped-up! [D,A,D]2 [G,,D,G,]2 | %35
!ped! !arpeggio!!fermata![D,,A,,F,]8)!ped-up! |] %36
V:3
 x8 | x8 | x8 | x6 (3!stemless!E !stemless!F !stemless!D | x8 | x8 | x8 | x8 | x8 | x8 | x8 | x8 | %12
 x8 | x8 | x8 | x8 | x8 |!8va(! x8 | x8!8va)! | %19
[I:staff +1] (3x x[I:staff -1] !stemless!F (3!stemless!G !stemless!E !stemless!F x4 | x8 | x8 | %22
 x8 | x8 | x8 | x8 | x8 | x8 | x8 | x8 | x8 | x8 | x8 |!8va(! x8 | x!8va)! x !stemless!G2 x4 | %35
 x8 |] %36
V:4
 x8 | x8 | x8 | x8 | x8 | x8 | x6[K:treble] x2 | %7
[K:bass] x2/3[K:treble] x10/3[K:bass] x2/3[K:treble] x10/3 | %8
[K:bass] x2/3[K:treble] x10/3[K:bass] x4 | x8 | x8 | x8 | x8 | x8 | x8 | x8 | x8 | x8 | %18
 x4/3[K:treble] x20/3 |[K:bass] x8 | x8 | x8 | x8 | x8/3[K:treble] x16/3 | x6[K:bass] x2 | %25
 x2[K:treble] x6 | x2[K:bass] x6 | x2/3[K:treble] x10/3[K:bass] x2/3[K:treble] x10/3 |[K:bass] x8 | %29
 x8 | x8 | %31
 (3!stemless!F, !stemless!^F, !stemless!=G, (3!stemless!^G, !stemless!=A, !stemless!^A, (3!stemless!=B,[I:staff -1] x x x2 | %32
 x8 | x8 | x8 | x8 |] %36

